src/topics/icons/reactivex.svg

<svg height="247" preserveAspectRatio="xMidYMid" viewBox="0 0 256 247" width="256" xmlns="http://www.w3.org/2000/svg" xmlns:xlink="http://www.w3.org/1999/xlink"><radialGradient id="a" cx="78.763611%" cy="37.847639%" r="89.872558%"><stop offset="0" stop-color="#f80090"/><stop offset="1" stop-color="#4d008e"/></radialGradient><radialGradient id="b" cx="68.738902%" cy="4.398337%" r="81.728479%"><stop offset="0" stop-color="#57008e"/><stop offset=".291746283" stop-color="#5c008e"/><stop offset="1" stop-color="#f80090"/></radialGradient><linearGradient id="c" x1="18.238653%" x2="81.159113%" y1="0%" y2="84.337476%"><stop offset="0" stop-color="#f70090"/><stop offset=".669712865" stop-color="#e50090"/><stop offset=".827147533" stop-color="#d6008f" stop-opacity=".2"/><stop offset="1" stop-color="#c10090" stop-opacity="0"/></linearGradient><linearGradient id="d" x1="64.906059%" x2="44.28977%" y1="71.558554%" y2="50%"><stop offset="0" stop-color="#b2008f" stop-opacity=".15134"/><stop offset=".400350765" stop-color="#f70090" stop-opacity=".4"/><stop offset=".648995536" stop-color="#f60090" stop-opacity=".891668"/><stop offset="1" stop-color="#ff0090"/></linearGradient><path d="m16.6852208 157.125328c-13.11831378-69.7454956 21.5510817-137.0108202 101.1234852-145.9591081-10.97309-11.72502163-25.9634973-11.81312553-32.8605363-10.38683981-12.1778817 3.88106363-11.7955765 11.76147491-25.6091545 21.94058741-13.7325715 7.8434632-20.6295996 1.8368507-30.6332697 9.967984-9.9822606 8.0704359-3.0168927 26.5972217-7.2034632 30.1991342-4.1558442 7.2034632-17.04727278 13.6206407-19.39393944 22.7191688-1.93939394 11.6358096 5.26406926 19.9474975 4.98701298 29.9215235.83116884 8.311689-8.27456277 13.011671-6.96630303 19.748018 3.91868399 11.005229 11.47179219 17.629091 15.03251949 20.682251.8165362.575484 1.6789158 1.992783 1.5236485 1.167281z" fill="#ff0090"/><path d="m158.275491 60.578542c-2.907005 0-5.264069-2.3570644-5.264069-5.2640693 0-2.9070048 2.357064-5.2640692 5.264069-5.2640692s5.264069 2.3570644 5.264069 5.2640692c0 2.9070049-2.357064 5.2640693-5.264069 5.2640693zm-138.5188505 104.154266c-12.6066147-60.616035 26.403595-111.2651924 101.9474215-86.3301275 44.327342 25.9319135 100.08922 24.2434215 102.60336 7.4805195 6.206639-20.0953231-28.259741-61.5064935-79.792208-72.3116883-102.2337664-19.94805196-157.3488083 90.5452623-124.7585735 151.1612963z" fill="url(#a)"/><path d="m187.458604 171.493257c15.180468 1.644606 29.590165-1.998684 42.943723-12.883117-20.17413 22.502511-45.39955 33.816381-74.343065 36.895031 13.819567 11.748848 27.146528 17.041177 39.896104 14.775965-35.426632 9.775654-65.107419-.984607-101.2129387-36.940463-1.8906926 9.679349 8.3323137 24.759994 18.8693177 34.386591-61.1374541-26.505419-66.4973823-109.0728084 8.053565-129.3830403-77.2808685-37.1295827-120.9789365 35.0134693-99.5094656 94.1417073 21.0064924 45.540762 76.9844223 80.599292 138.3363186 72.889369 29.800765-3.6502 74.301847-24.196365 92.481501-72.889369-12.812745 11.497835-35.715723 21.511905-45.936047 22.280053 34.591031-17.287203 53.263969-46.662088 48.022719-86.810597-7.16523 17.058355-16.618944 30.159238-28.44426 39.156918 25.119577-39.156918 20.809143-59.395879 2.21645-81.6390652 13.298702 36.5714282-3.904277 77.1607272-41.373922 106.0200172z" fill="url(#b)"/><path d="m169.707072 213.625541c-2.624665-.490411 5.949857 3.473301-10.627706-.915225-16.577562-4.388526-33.456864-8.617572-64.3369387-39.369643-1.8906926 9.679349 8.3323137 24.759994 18.8693177 34.386591 28.44453 19.837663 9.100121 10.559533 52.440201 25.542217 3.477814-6.922619 3.655126-13.074135 3.655126-19.64394z" fill="url(#c)"/><path d="m114.601372 57.8510108s3.76808-5.561648 5.234847-8.0699857c1.797422-3.0737932 4.55772-8.6764071 4.55772-8.6764071s-29.004328-9.4628431-36.1222942-10.6174515c-22.1266233 5.7437136-22.2071426 15.0137894-9.8365798 29.2029495 1.3764156 1.5792208 36.166307-1.8391052 36.166307-1.8391052z" fill="url(#d)"/></svg>

<?xml version="1.0" encoding="UTF-8" standalone="no"?>
<svg width="256px" height="247px" viewBox="0 0 256 247" version="1.1" xmlns="http://www.w3.org/2000/svg" xmlns:xlink="http://www.w3.org/1999/xlink" preserveAspectRatio="xMidYMid">
    <defs>
        <radialGradient cx="78.7636112%" cy="37.8476394%" fx="78.7636112%" fy="37.8476394%" r="89.8725577%" id="radialGradient-1">
            <stop stop-color="#F80090" offset="0%"></stop>
            <stop stop-color="#4D008E" offset="100%"></stop>
        </radialGradient>
        <radialGradient cx="68.7389016%" cy="4.39833672%" fx="68.7389016%" fy="4.39833672%" r="81.7284786%" id="radialGradient-2">
            <stop stop-color="#57008E" offset="0%"></stop>
            <stop stop-color="#5C008E" offset="29.1746283%"></stop>
            <stop stop-color="#F80090" offset="100%"></stop>
        </radialGradient>
        <linearGradient x1="18.2386532%" y1="0%" x2="81.1591125%" y2="84.3374763%" id="linearGradient-3">
            <stop stop-color="#F70090" offset="0%"></stop>
            <stop stop-color="#E50090" offset="66.9712865%"></stop>
            <stop stop-color="#D6008F" stop-opacity="0.2" offset="82.7147533%"></stop>
            <stop stop-color="#C10090" stop-opacity="0" offset="100%"></stop>
        </linearGradient>
        <linearGradient x1="64.9060589%" y1="71.5585538%" x2="44.2897699%" y2="50%" id="linearGradient-4">
            <stop stop-color="#B2008F" stop-opacity="0.151340138" offset="0%"></stop>
            <stop stop-color="#F70090" stop-opacity="0.4" offset="40.0350765%"></stop>
            <stop stop-color="#F60090" stop-opacity="0.891668" offset="64.8995536%"></stop>
            <stop stop-color="#FF0090" offset="100%"></stop>
        </linearGradient>
    </defs>
	<g>
		<path d="M16.6852208,157.125328 C3.56690702,87.3798324 38.2363025,20.1145078 117.808706,11.1662199 C106.835616,-0.558801732 91.8452087,-0.646905628 84.9481697,0.779380087 C72.770288,4.66044372 73.1525932,12.540855 59.3390152,22.7199675 C45.6064437,30.5634307 38.7094156,24.5568182 28.7057455,32.6879515 C18.7234849,40.7583874 25.6888528,59.2851732 21.5022823,62.8870857 C17.3464381,70.0905489 4.45500952,76.5077264 2.10834286,85.6062545 C0.168948918,97.2420641 7.37241212,105.553752 7.09535584,115.527778 C7.92652468,123.839467 -1.17920693,128.539449 0.129052814,135.275796 C4.0477368,146.281025 11.600845,152.904887 15.1615723,155.958047 C15.9781085,156.533531 16.8404881,157.95083 16.6852208,157.125328 L16.6852208,157.125328 Z" fill="#FF0090"></path>
		<path d="M158.275491,60.578542 C155.368486,60.578542 153.011422,58.2214776 153.011422,55.3144727 C153.011422,52.4074679 155.368486,50.0504035 158.275491,50.0504035 C161.182496,50.0504035 163.53956,52.4074679 163.53956,55.3144727 C163.53956,58.2214776 161.182496,60.578542 158.275491,60.578542 L158.275491,60.578542 Z M19.7566405,164.732808 C7.1500258,104.116773 46.1602355,53.4676156 121.704062,78.4026805 C166.031404,104.334594 221.793282,102.646102 224.307422,85.8832 C230.514061,65.7878769 196.047681,24.3767065 144.515214,13.5715117 C42.2814476,-6.37654026 -12.8335943,104.116774 19.7566405,164.732808 L19.7566405,164.732808 Z" fill="url(#radialGradient-1)"></path>
		<path d="M187.458604,171.493257 C202.639072,173.137863 217.048769,169.494573 230.402327,158.61014 C210.228197,181.112651 185.002777,192.426521 156.059262,195.505171 C169.878829,207.254019 183.20579,212.546348 195.955366,210.281136 C160.528734,220.05679 130.847947,209.296529 94.7424273,173.340673 C92.8517347,183.020022 103.074741,198.100667 113.611745,207.727264 C52.4742909,181.221845 47.1143627,98.6544556 121.66531,78.3442237 C44.3844415,41.214641 0.686373501,113.357693 22.1558444,172.485931 C43.1623368,218.026693 99.1402667,253.085223 160.492163,245.3753 C190.292928,241.7251 234.79401,221.178935 252.973664,172.485931 C240.160919,183.983766 217.257941,193.997836 207.037617,194.765984 C241.628648,177.478781 260.301586,148.103896 255.060336,107.955387 C247.895106,125.013742 238.441392,138.114625 226.616076,147.112305 C251.735653,107.955387 247.425219,87.716426 228.832526,65.4732398 C242.131228,102.044668 224.928249,142.633967 187.458604,171.493257 L187.458604,171.493257 Z" fill="url(#radialGradient-2)"></path>
		<path d="M169.707072,213.625541 C167.082407,213.13513 175.656929,217.098842 159.079366,212.710316 C142.501804,208.32179 125.622502,204.092744 94.7424273,173.340673 C92.8517347,183.020022 103.074741,198.100667 113.611745,207.727264 C142.056275,227.564927 122.711866,218.286797 166.051946,233.269481 C169.52976,226.346862 169.707072,220.195346 169.707072,213.625541 L169.707072,213.625541 Z" fill="url(#linearGradient-3)"></path>
		<path d="M114.601372,57.8510108 C114.601372,57.8510108 118.369452,52.2893628 119.836219,49.7810251 C121.633641,46.7072319 124.393939,41.104618 124.393939,41.104618 C124.393939,41.104618 95.389611,31.6417749 88.2716448,30.4871665 C66.1450215,36.2308801 66.0645022,45.5009559 78.435065,59.690116 C79.8114806,61.2693368 114.601372,57.8510108 114.601372,57.8510108 L114.601372,57.8510108 Z" fill="url(#linearGradient-4)"></path>
	</g>
</svg>
